X:1
T:My flocks feed not
T:Thomas Weelkes
T:My flocks feed not
T:FirstPart
C:Thomas Weelkes
%%score [ 1 2 3 ]
L:1/8
Q:1/4=90
M:4/4
K:G
V:1 treble nm="Soprano 1" snm="S 1"
V:2 treble nm="Soprano 2" snm="S 2"
V:3 tenor nm="Tenor" snm="T"
V:1
 z8 | d6 d2 | B4 d4 | c4 B4 | A8 | G4 z2 d2 | e3 f g2 G2 | c4 B2 A2 | G3 A B4 | A4 G4 | F2 G4 F2 | %11
w: |My flocks|feed not,|My flocks|feed|not, all|is a- miss, all|is _ a-|miss, _ all|is all|is _ a-|
 G2 d4 d2 | B4 d4 | c4 B4 | A8 | G4 z2 d2 | e3 f g2 G2 | c4 B2 A2 | G3 A B4 | A4 G4 | F2 G4 F2 | %21
w: miss, Love is|dy- ing,|Love is|dy-|ing, caus-|er of this, caus-|er of _|this, _ of|this, caus-|er _ of|
 G8 |[M:3/4][Q:3/4=135] F3 F GE | F d2 d ef |[M:4/4][Q:3/4=90] g4 d4 | f8- | f4 e4 | d8 | e8 | %29
w: this.|All our mer- ry|jigs, all our mer- ry|jigs, are|quite|_ for-|got,|are|
 d8- | d2 c2 B4 | A6 A2 | B8- | B4 z4 | z2 g3 ega | g2 =f2 e2 e2 | d8 | z2 g3 =fee | d2 =f2 e2 d2 | %39
w: quite|_ _ are|quite for-|got,|_|All my La- dy's|love is lost, God|wot,|Where our faith was|firm- ly fix'd in|
 d2 c2 BA c2 | BA G2 F2 AB | c2 B2 A2 c2 | B2 AB c2 Bc | dd c2 GA _B2 | A2 G2 de=ff | e2 e2 d3 c | %46
w: love, was firm- ly fix'd|in _ _ love, There an-|noy is placed, is|placed, There an- noy, There an-|noy is placed, There an- noy|is placed, There an- noy is|placed with- out re-|
 B2 G2 B3 c | d2 d2 f3 f | g8 | z4 z2 d2 | f3 g a2 A2 | B3 ^c d4 | z2 =f2 e3 e | d4 ^c4 | %54
w: move. Our sil- ly|cross wrought all my|loss,|Our|sil- ly cross wrought|all my loss,|O frown- ing|for- tune,|
 z2 g2 =f3 f | e4 d4 | z2 a4 g2- | gg =f2 e2 de | =f3 g a2 g2 | f6 d2 | BcdB GA B2 | z2 g2 e=fge | %62
w: O frown- ing|for- tune,|O frown-|* ing for- tune, cur- sed|fic- * * kle|dame, For|now I see in- con- stan- cy|For now I see in-|
 cd e4 z2 | c3 c B2 B2 | A2 A2 D3 E | F2 G3 F/E/ F2 | G2 d4 d2 | g4 e4 | c2 c2 =f4 | e4 d2 d2 | %70
w: con- stan- cy|More in wo- men|than in ma- ny|men to _ _ _|be, More in|wo- men,|More in wo-|men than in|
 edcB A2 AB | cBAG F2 A2- | AG G4 F2 | G8 |] %74
w: ma- ny men to be, than in|ma- ny men to be, ma-|* ny men to|be.|
V:2
 z8 | z8 | G6 G2 | E4 G4- | G4 F4 | G4 F4 | G4 z2 d2 | e3 f g2 f2 | e2 e2 d4 | c3 d e2 Bc | %10
w: ||My ewes|breed not,|_ My|ewes breed|not, all|is a- miss, all|is a- miss,|all _ is a- *|
 d2 B2 A4 | B8 | G6 G2 | E4 G4- | G4 F4 | G4 F4 | G4 z2 d2 | e3 f g2 f2 | e2 e2 d4 | c3 d e2 Bc | %20
w: miss, _ a-|miss,|Faith's de-|fy- ing,|_ Faith's|de- fy-|ing, caus-|er of this, caus-|er of this,|caus- * * * *|
 d2 B2 A4 | B8 |[M:3/4] A3 A B^c | d B2 B cA |[M:4/4] B4 B4 | A4 d4- | d4 c4- | c4 B4 | c8- | %29
w: * er of|this.|All our mer- ry|jigs, all our mer- ry|jigs, are|quite for-|* got,|_ are|quite|
 c4 B4 | A4 G4- | G4 F4 | G2 d3 Bde | d2 d2 B3 c | B4 c2 c2 | e2 d2 d2 ^c2 | d2 D2 D2 d2- | %37
w: _ for-|got, quite|_ for-|got, All my La- dy's|love is lost, God|wot, All my|La- dy's love is|lost, God wot, Where|
 dcBB c2 c2 | BA B4 z2 | z2 g3 =fee | d2 ^c2 d2 =f2 | e2 de =f2 e2 | d4 e=f g2 | =f2 e4 de | %44
w: _ our faith was firm- ly|fix'd in love,|Where our faith was|firm- ly fix'd in|love, There an- noy is|placed, There an- noy|is placed, There an-|
 =f2 e2 d3 c | B2 AG-GF/E/ F2 | G4 z2 G2 | B3 c d4 | c4 B2 G2 | A2 A2 B3 c | d6 z2 | z2 e2 f3 g | %52
w: noy is placed with-|out _ _ _ _ _ re-|move. Our|sil- ly cross|wrought all my|loss, wrought all my|loss,|Our sil- ly|
 a4 z2 g2 | =f3 f e4 | d4 z2 a2 | g3 g =f4 | e4 z2 d2 | c3 c B4 | A2 AB c2 B2 | A2 A2 FG A2 | %60
w: cross O|frown- ing for-|tune, O|frown- ing for-|tune, O|frown- ing for-|tune, cur- sed fic- kle|dame, For now I see|
 z2 d2 BcdB | GA B2 z2 g2 | e=fge cd e2 | =f2 e2 g3 g | =f2 e2 d4- | d2 ^c2 d2 A2 | B8 | G2 G2 c4 | %68
w: For now I see in-|con- stan- cy For|now I see in- con- stan- cy|More in wo- men|than in ma-|* ny men to|be,|More in wo-|
 A4 A2 B2 | c3 c B2 B2 | cBAG F2 d2 | edcB A2 c2- | c2 B2 A3 A | B8 |] %74
w: men, More in|wo- men than in|ma- ny men to be, in|ma- ny men to be, ma-|* ny men to|be.|
V:3
 z8 | z8 | z8 | z8 | D6 D2 | B,4 D4 | C4 B,4 | A,4 G,2 D2 | E3 =F G2 G,2 | A,3 B, C2 E2 | D4 D4 | %11
w: ||||My rams|speed not,|My rams|speed not, all|is a- miss, all|is a- miss, all|is a-|
 G,8- | G,8 | z8 | D6 D2 | B,4 D4 | C4 B,4 | A,4 G,2 D2 | E3 =F G2 G,2 | A,3 B, C2 E2 | D4 D4 | %21
w: miss,|_||Heart's de-|ny- ing,|Heart's de-|ny- ing, caus-|er of this, caus-|er of this, caus-|er of|
 G,8 |[M:3/4] D3 D G,A, | D G2 G CD |[M:4/4] G,4 G4 | D8 | G8- | G8 | C4 A,4 | D8 | D8- | D8 | %32
w: this.|All our mer- ry|jigs, all our mer- ry|jigs, are|quite|for-||got, are|quite|for-||
 G,8 | z2 G3 EGA | G2 G2 C3 A, | C2 D2 A,2 A,2 | D2 A3 GFF | G4 C4 | D2 D2 G,2 G2- | G=FEE D2 C2 | %40
w: got,|All my La- dy's|love is lost, God|wot, is lost, God|wot, Where our faith was|firm- ly|fix'd in love, Where|_ our faith was firm- ly|
 D2 E2 D4 | E=F G2 D2 A2 | DE =F2 E4 | D2 A,B, C2 G,2 | D2 E=F G2 D2 | E2 C2 D2 D2 | G,8- | %47
w: fix'd in love,|There an- noy is placed,|There an- noy is|placed, There an- noy is|placed, There an- noy is|placed with- out re-|move.|
 G,4 z2 D2 | E3 =F G2 E2 | F3 F G2 G,2 | D3 E F2 F2 | E2 E2 D4- | D2 D2 ^C3 C | D4 A,2 A,2 | %54
w: _ Our|sil- ly cross wrought|all my loss, Our|sil- ly cross wrought|all my loss,|_ O frown- ing|for- tune, O|
 B,3 C D2 A,2 | C2 C2 D3 D | A,2 C2 B,3 B, | A,4 G,4 | DE =F4 G2 | D2 D4 D2 | G,4 z2 G2 | %61
w: frown- ing for- tune,|cur- sed fic- kle|dame, O frown- ing|for- tune,|cur- sed fic- kle|dame, fic- kle|dame, For|
 E=FGE CD E2 | z2 C2 A,B,CA, | =F,G, A,2 G,3 G, | D2 A,2 B,3 C | D2 E2 D2 D2 | G,4 G2 G2 | E4 C4 | %68
w: now I see in- con- stan- cy|For now I see in-|con- stan- cy More in|wo- men than in|ma- ny men to|be, More in|wo- men|
 =F2 F2 D3 D | C4 G,4 | C4 D4 | C4 D2 A,2 | D4 D,4 | G,8 |] %74
w: than in ma- ny|men to|be, than|in ma- ny|men to|be.|

